; generated by Slic3r 1.30.0.25-prusa3d-release_candidate_1_3 on 2016-10-12 at 14:34:41

; external perimeters extrusion width = 0.70mm
; perimeters extrusion width = 0.70mm
; infill extrusion width = 0.70mm
; solid infill extrusion width = 0.70mm
; top infill extrusion width = 0.74mm
; support material extrusion width = 0.35mm

M115 U3.0.8 ; tell printer latest fw version
M83  ; extruder relative mode
M104 S255 ; set extruder temp
M140 S100 ; set bed temp
M190 S100 ; wait for bed temp
M109 S255 ; wait for extruder temp
G28 W ; home all without mesh bed level
G80 ; mesh bed leveling
G1 Y-3.0 F1000.0 ; go outside pritn area
G1 X60.0 E9.0  F1000.0 ; intro line
G1 X100.0 E12.5  F1000.0 ; intro line
G21 ; set units to millimeters
G90 ; use absolute coordinates
M83 ; use relative distances for extrusion
G1 E-0.80000 F2100.00000
G1 Z0.150 F6000.000
G1 X58.944 Y63.533 F6000.000
G1 E0.80000 F2100.00000
M204 S1000
G1 F1800
G1 X62.003 Y60.690 E0.10100
G1 X63.125 Y60.106 E0.03060
G1 X70.513 Y58.513 E0.18278
G1 X70.897 Y58.463 E0.00937
G1 X88.354 Y57.593 E0.42271
G1 X127.538 Y57.841 E0.94767
G1 X128.046 Y57.899 E0.01238
G1 X135.501 Y59.576 E0.18478
G1 X136.286 Y59.909 E0.02064
G1 X193.266 Y97.290 E1.64814
G1 X194.147 Y98.336 E0.03307
G1 X194.344 Y99.287 E0.02347
G1 X194.345 Y149.797 E1.22159
G1 X193.953 Y151.107 E0.03307
G1 X192.907 Y151.988 E0.03307
G1 X191.962 Y152.185 E0.02334
G1 X87.349 Y152.410 E2.53005
G1 X86.969 Y152.381 E0.00922
G1 X69.009 Y149.526 E0.43983
G1 X67.500 Y148.636 E0.04236
G1 X62.772 Y142.570 E0.18599
G1 X62.359 Y141.755 E0.02212
G1 X56.653 Y121.655 E0.50532
G1 X56.588 Y121.356 E0.00740
G1 X55.459 Y113.798 E0.18482
G1 X55.434 Y113.392 E0.00982
G1 X56.319 Y73.166 E0.97311
G1 X56.374 Y72.703 E0.01127
G1 X58.099 Y64.895 E0.19339
G1 X58.806 Y63.661 E0.03439
G1 X58.900 Y63.574 E0.00310
G1 F4800
G1 X60.239 Y62.329 E-0.76000
G1 E-0.04000 F2100.00000
G1 X125.156 Y122.305 F6000.000
G1 E0.80000 F2100.00000
G1 F1440
G1 X89.007 Y122.305 E0.87426
G1 X89.007 Y85.674 E0.88592
G1 X125.156 Y85.674 E0.87426
G1 X125.156 Y122.245 E0.88447
G1 X124.768 Y121.918 F6000.000
G1 F1440
G1 X89.395 Y121.918 E0.85550
G1 X89.395 Y86.062 E0.86716
G1 X124.768 Y86.062 E0.85550
G1 X124.768 Y121.858 E0.86571
G1 X124.380 Y121.530 F6000.000
G1 F1440
G1 X89.783 Y121.530 E0.83674
G1 X89.783 Y86.450 E0.84840
G1 X124.380 Y86.450 E0.83674
G1 X124.380 Y121.470 E0.84695
G1 X123.992 Y121.142 F6000.000
G1 F1440
G1 X90.170 Y121.142 E0.81799
G1 X90.170 Y86.838 E0.82965
G1 X123.992 Y86.838 E0.81799
G1 X123.992 Y121.082 E0.82819
G1 X123.605 Y120.754 F6000.000
G1 F1080
G1 X90.558 Y120.754 E0.79923
G1 X90.558 Y87.225 E0.81089
G1 X123.605 Y87.225 E0.79923
G1 X123.605 Y120.694 E0.80944
G1 X123.707 Y121.141 F6000.000
G1 F4800
G1 X121.776 Y120.697 E-0.76000
G1 E-0.04000 F2100.00000
G1 X137.131 Y117.807 F6000.000
G1 E0.80000 F2100.00000
G1 F1440
G1 X141.180 Y117.807 E0.09795
G1 X140.088 Y131.115 E0.32294
G1 X139.066 Y132.706 E0.04571
G1 X135.125 Y132.706 E0.09533
G1 X131.715 Y139.079 E0.17482
G1 X134.973 Y139.079 E0.07881
G1 X134.663 Y139.563 E0.01390
G1 X134.682 Y142.570 E0.07273
G1 X134.472 Y142.897 E0.00940
G1 X124.806 Y146.895 E0.25299
G1 X123.182 Y147.357 E0.04082
G1 X93.582 Y147.798 E0.71595
G1 X91.569 Y148.115 E0.04930
G1 X90.471 Y147.928 E0.02694
G1 X87.393 Y148.247 E0.07484
G1 X70.629 Y145.582 E0.41051
G1 X70.183 Y144.516 E0.02795
G1 X66.491 Y140.497 E0.13199
G1 X66.684 Y138.664 E0.04456
G1 X66.616 Y138.459 E0.00523
G1 X69.715 Y138.689 E0.07516
G1 X68.777 Y131.826 E0.16753
G1 X64.400 Y131.802 E0.10584
G1 X61.392 Y122.764 E0.23037
G1 X66.014 Y122.764 E0.11176
G1 X65.304 Y111.684 E0.26853
G1 X59.653 Y111.684 E0.13666
G1 X60.032 Y102.103 E0.23189
G1 X66.019 Y102.087 E0.14480
G1 X66.413 Y95.314 E0.16406
G1 X60.301 Y95.298 E0.14782
G1 X60.607 Y87.541 E0.18775
G1 X60.540 Y80.668 E0.16623
G1 X64.768 Y80.668 E0.10225
G1 X63.153 Y73.321 E0.18193
G1 X60.487 Y73.321 E0.06447
G1 X62.032 Y66.327 E0.17322
G1 X64.473 Y64.060 E0.08056
G1 X71.247 Y62.599 E0.16761
G1 X88.452 Y61.742 E0.41660
G1 X103.583 Y62.862 E0.36696
G1 X104.971 Y62.848 E0.03355
G1 X118.254 Y63.124 E0.32134
G1 X119.247 Y63.401 E0.02492
G1 X127.473 Y62.023 E0.20171
G1 X134.222 Y63.541 E0.16731
G1 X136.338 Y65.127 E0.06397
G1 X143.612 Y83.489 E0.47766
G1 X143.695 Y85.909 E0.05854
G1 X143.440 Y89.320 E0.08273
G1 X139.683 Y89.320 E0.09085
G1 X138.719 Y99.621 E0.25022
G1 X142.669 Y99.627 E0.09551
G1 X142.034 Y107.408 E0.18879
G1 X138.178 Y107.463 E0.09327
G1 X137.137 Y117.747 E0.25000
G1 X137.560 Y117.419 F6000.000
G1 F1440
G1 X141.601 Y117.419 E0.09775
G1 X140.466 Y131.244 E0.33546
G1 X139.278 Y133.094 E0.05318
G1 X135.357 Y133.094 E0.09483
G1 X132.362 Y138.691 E0.15355
G1 X135.683 Y138.691 E0.08033
G1 X135.051 Y139.675 E0.02828
G1 X135.071 Y142.683 E0.07273
G1 X134.732 Y143.209 E0.01513
G1 X124.933 Y147.262 E0.25646
G1 X123.239 Y147.744 E0.04260
G1 X93.616 Y148.185 E0.71652
G1 X91.566 Y148.508 E0.05017
G1 X90.458 Y148.319 E0.02720
G1 X87.382 Y148.638 E0.07479
G1 X70.355 Y145.932 E0.41697
G1 X69.851 Y144.729 E0.03154
G1 X66.087 Y140.630 E0.13459
G1 X66.290 Y138.707 E0.04676
G1 X66.064 Y138.029 E0.01728
G1 X69.266 Y138.267 E0.07765
G1 X68.438 Y132.212 E0.14780
G1 X64.120 Y132.188 E0.10442
G1 X60.855 Y122.376 E0.25010
G1 X65.600 Y122.376 E0.11477
G1 X64.940 Y112.071 E0.24973
G1 X59.250 Y112.071 E0.13762
G1 X59.659 Y101.716 E0.25064
G1 X65.653 Y101.700 E0.14497
G1 X66.002 Y95.701 E0.14532
G1 X59.897 Y95.685 E0.14763
G1 X60.220 Y87.535 E0.19725
G1 X60.148 Y80.280 E0.17547
G1 X64.286 Y80.280 E0.10006
G1 X62.841 Y73.709 E0.16272
G1 X60.084 Y73.709 E0.06667
G1 X60.081 Y73.362 E0.00839
G1 X61.680 Y66.125 E0.17923
G1 X64.287 Y63.703 E0.08607
G1 X71.196 Y62.214 E0.17095
G1 X88.456 Y61.353 E0.41795
G1 X103.596 Y62.474 E0.36715
G1 X104.973 Y62.460 E0.03330
G1 X118.311 Y62.738 E0.32266
G1 X119.268 Y63.004 E0.02401
G1 X127.484 Y61.628 E0.20147
G1 X134.388 Y63.181 E0.17115
G1 X136.659 Y64.883 E0.06863
G1 X143.998 Y83.409 E0.48193
G1 X144.083 Y85.916 E0.06068
G1 X143.800 Y89.708 E0.09195
G1 X140.036 Y89.708 E0.09101
G1 X139.145 Y99.234 E0.23140
G1 X143.086 Y99.240 E0.09532
G1 X142.392 Y107.790 E0.20747
G1 X138.529 Y107.846 E0.09344
G1 X137.566 Y117.360 E0.23127
G1 X137.989 Y117.032 F6000.000
G1 F1440
G1 X142.022 Y117.032 E0.09755
G1 X140.845 Y131.372 E0.34798
G1 X139.490 Y133.481 E0.06064
G1 X135.590 Y133.481 E0.09433
G1 X133.009 Y138.304 E0.13227
G1 X136.393 Y138.304 E0.08184
G1 X135.440 Y139.788 E0.04267
G1 X135.459 Y142.795 E0.07273
G1 X134.993 Y143.521 E0.02086
G1 X125.061 Y147.629 E0.25994
G1 X123.296 Y148.131 E0.04437
G1 X93.649 Y148.573 E0.71709
G1 X91.564 Y148.901 E0.05105
G1 X90.445 Y148.711 E0.02745
G1 X87.371 Y149.029 E0.07474
G1 X70.080 Y146.281 E0.42343
G1 X69.520 Y144.941 E0.03512
G1 X65.683 Y140.763 E0.13718
G1 X65.895 Y138.750 E0.04897
G1 X65.512 Y137.599 E0.02933
G1 X68.817 Y137.845 E0.08014
G1 X68.099 Y132.598 E0.12807
G1 X63.840 Y132.575 E0.10301
G1 X60.317 Y121.988 E0.26984
G1 X65.187 Y121.988 E0.11778
G1 X64.576 Y112.459 E0.23093
G1 X58.846 Y112.459 E0.13858
G1 X59.286 Y101.329 E0.26939
G1 X65.287 Y101.313 E0.14513
G1 X65.591 Y96.088 E0.12658
G1 X59.494 Y96.071 E0.14745
G1 X59.832 Y87.529 E0.20675
G1 X59.757 Y79.892 E0.18471
G1 X63.803 Y79.892 E0.09787
G1 X62.529 Y74.096 E0.14351
G1 X59.700 Y74.096 E0.06842
G1 X59.692 Y73.321 E0.01875
G1 X61.327 Y65.923 E0.18323
G1 X64.101 Y63.346 E0.09157
G1 X71.145 Y61.828 E0.17429
G1 X88.461 Y60.965 E0.41929
G1 X103.608 Y62.086 E0.36733
G1 X104.975 Y62.072 E0.03306
G1 X118.368 Y62.351 E0.32399
G1 X119.289 Y62.607 E0.02311
G1 X127.495 Y61.233 E0.20122
G1 X134.554 Y62.820 E0.17500
G1 X136.979 Y64.638 E0.07328
G1 X144.383 Y83.329 E0.48620
G1 X144.472 Y85.924 E0.06281
G1 X144.160 Y90.096 E0.10116
G1 X140.390 Y90.096 E0.09118
G1 X139.571 Y98.847 E0.21257
G1 X143.504 Y98.853 E0.09513
G1 X142.750 Y108.173 E0.22614
G1 X138.880 Y108.229 E0.09360
G1 X137.995 Y116.972 E0.21253
G1 X138.418 Y116.644 F6000.000
G1 F1440
G1 X142.443 Y116.644 E0.09736
G1 X141.224 Y131.500 E0.36050
G1 X139.702 Y133.869 E0.06810
G1 X135.822 Y133.869 E0.09384
G1 X133.657 Y137.916 E0.11100
G1 X137.103 Y137.916 E0.08336
G1 X135.828 Y139.901 E0.05705
G1 X135.848 Y142.908 E0.07273
G1 X135.253 Y143.833 E0.02658
G1 X125.188 Y147.996 E0.26342
G1 X123.353 Y148.518 E0.04615
G1 X93.682 Y148.960 E0.71767
G1 X91.562 Y149.294 E0.05192
G1 X90.432 Y149.102 E0.02771
G1 X87.361 Y149.420 E0.07468
G1 X69.806 Y146.630 E0.42988
G1 X69.188 Y145.153 E0.03871
G1 X65.279 Y140.897 E0.13977
G1 X65.501 Y138.793 E0.05117
G1 X64.961 Y137.170 E0.04138
G1 X68.368 Y137.423 E0.08263
G1 X67.761 Y132.984 E0.10834
G1 X63.560 Y132.961 E0.10160
G1 X59.779 Y121.601 E0.28957
G1 X64.773 Y121.601 E0.12078
G1 X64.212 Y112.847 E0.21214
G1 X58.443 Y112.847 E0.13954
G1 X58.913 Y100.942 E0.28814
G1 X64.921 Y100.926 E0.14530
G1 X65.180 Y96.475 E0.10784
G1 X59.091 Y96.458 E0.14727
G1 X59.444 Y87.523 E0.21625
G1 X59.365 Y79.504 E0.19395
G1 X63.321 Y79.504 E0.09567
G1 X62.217 Y74.484 E0.12431
G1 X59.316 Y74.484 E0.07017
G1 X59.304 Y73.281 E0.02911
G1 X60.974 Y65.722 E0.18723
G1 X63.915 Y62.990 E0.09707
G1 X71.095 Y61.442 E0.17763
G1 X88.466 Y60.576 E0.42064
G1 X103.621 Y61.698 E0.36752
G1 X104.977 Y61.685 E0.03281
G1 X118.425 Y61.964 E0.32531
G1 X119.310 Y62.210 E0.02221
G1 X127.506 Y60.838 E0.20098
G1 X134.721 Y62.460 E0.17885
G1 X137.299 Y64.394 E0.07794
G1 X144.768 Y83.248 E0.49048
G1 X144.860 Y85.932 E0.06495
G1 X144.519 Y90.483 E0.11038
G1 X140.743 Y90.483 E0.09134
G1 X139.997 Y98.460 E0.19375
G1 X143.922 Y98.466 E0.09494
G1 X143.107 Y108.556 E0.24482
G1 X139.231 Y108.611 E0.09376
G1 X138.424 Y116.584 E0.19380
G1 X138.847 Y116.256 F6000.000
G1 F1080
G1 X142.864 Y116.256 E0.09716
G1 X141.602 Y131.628 E0.37302
G1 X139.914 Y134.257 E0.07556
G1 X136.054 Y134.257 E0.09334
G1 X134.304 Y137.528 E0.08972
G1 X137.813 Y137.528 E0.08487
G1 X136.217 Y140.013 E0.07144
G1 X136.236 Y143.021 E0.07274
G1 X135.514 Y144.145 E0.03231
G1 X125.316 Y148.363 E0.26690
G1 X123.410 Y148.905 E0.04793
G1 X93.715 Y149.347 E0.71824
G1 X91.559 Y149.687 E0.05279
G1 X90.419 Y149.493 E0.02796
G1 X87.350 Y149.811 E0.07463
G1 X69.532 Y146.979 E0.43634
G1 X68.857 Y145.366 E0.04229
G1 X64.875 Y141.030 E0.14237
G1 X65.106 Y138.836 E0.05337
G1 X64.409 Y136.740 E0.05342
G1 X67.919 Y137.000 E0.08512
G1 X67.422 Y133.370 E0.08862
G1 X63.280 Y133.347 E0.10018
G1 X59.241 Y121.213 E0.30930
G1 X64.360 Y121.213 E0.12379
G1 X63.849 Y113.235 E0.19334
G1 X58.039 Y113.235 E0.14050
G1 X58.541 Y100.555 E0.30689
G1 X64.555 Y100.539 E0.14546
G1 X64.769 Y96.861 E0.08910
G1 X58.687 Y96.845 E0.14709
G1 X59.056 Y87.518 E0.22575
G1 X58.974 Y79.116 E0.20319
G1 X62.839 Y79.116 E0.09348
G1 X61.905 Y74.872 E0.10510
G1 X58.932 Y74.872 E0.07191
G1 X58.916 Y73.240 E0.03946
G1 X60.622 Y65.520 E0.19122
G1 X63.729 Y62.633 E0.10257
G1 X71.044 Y61.056 E0.18097
G1 X88.470 Y60.188 E0.42198
G1 X103.633 Y61.310 E0.36771
G1 X104.979 Y61.297 E0.03256
G1 X118.482 Y61.578 E0.32664
G1 X119.331 Y61.814 E0.02131
G1 X127.516 Y60.443 E0.20073
G1 X134.887 Y62.100 E0.18270
G1 X137.619 Y64.149 E0.08260
G1 X145.154 Y83.168 E0.49475
G1 X145.248 Y85.940 E0.06709
G1 X144.879 Y90.871 E0.11959
G1 X141.096 Y90.871 E0.09150
G1 X140.422 Y98.073 E0.17492
G1 X144.340 Y98.079 E0.09475
G1 X144.169 Y100.370 E0.05558
G1 X143.465 Y108.939 E0.20792
G1 X139.582 Y108.994 E0.09392
G1 X138.853 Y116.196 E0.17507
G1 X138.772 Y116.649 F6000.000
G1 F4800
G1 X140.681 Y116.223 E-0.76000
G1 E-0.04000 F2100.00000
G1 X137.118 Y118.093 F6000.000
G1 E0.80000 F2100.00000
G1 F2160
G1 X140.592 Y121.566 E0.11896
G1 X140.550 Y122.074 E0.01233
G1 X125.441 Y106.965 E0.51743
G1 X125.441 Y107.514 E0.01330
G1 X140.509 Y122.581 E0.51600
G1 X140.467 Y123.089 E0.01233
G1 X125.441 Y108.063 E0.51457
G1 X125.441 Y108.612 E0.01330
G1 X140.425 Y123.596 E0.51315
G1 X140.384 Y124.104 E0.01233
G1 X125.441 Y109.161 E0.51172
G1 X125.441 Y109.711 E0.01330
G1 X140.342 Y124.611 E0.51029
G1 X140.300 Y125.119 E0.01233
G1 X125.441 Y110.260 E0.50887
G1 X125.441 Y110.809 E0.01330
G1 X140.259 Y125.626 E0.50744
G1 X140.217 Y126.134 E0.01233
G1 X125.441 Y111.358 E0.50601
G1 X125.441 Y111.907 E0.01330
G1 X140.175 Y126.641 E0.50458
G1 X140.134 Y127.149 E0.01233
G1 X125.441 Y112.456 E0.50316
G1 X125.441 Y113.006 E0.01330
G1 X140.092 Y127.656 E0.50173
G1 X140.050 Y128.164 E0.01233
G1 X125.441 Y113.555 E0.50030
G1 X125.441 Y114.104 E0.01330
G1 X140.009 Y128.671 E0.49888
G1 X139.967 Y129.178 E0.01233
G1 X125.441 Y114.653 E0.49745
G1 X125.441 Y115.202 E0.01330
G1 X139.925 Y129.686 E0.49602
G1 X139.884 Y130.193 E0.01233
G1 X125.441 Y115.751 E0.49460
G1 X125.441 Y116.300 E0.01330
G1 X139.842 Y130.701 E0.49317
G1 X139.755 Y131.163 E0.01139
G1 X125.441 Y116.850 E0.49020
G1 X125.441 Y117.399 E0.01330
G1 X139.540 Y131.498 E0.48284
G1 X139.326 Y131.832 E0.00962
G1 X125.441 Y117.948 E0.47549
G1 X125.441 Y118.497 E0.01330
G1 X139.111 Y132.167 E0.46813
G1 X138.815 Y132.420 E0.00943
G1 X125.441 Y119.046 E0.45802
G1 X125.441 Y119.595 E0.01330
G1 X138.266 Y132.420 E0.43921
G1 X137.717 Y132.420 E0.01330
G1 X125.441 Y120.145 E0.42040
G1 X125.441 Y120.694 E0.01330
G1 X137.168 Y132.420 E0.40160
G1 X136.619 Y132.420 E0.01330
G1 X125.441 Y121.243 E0.38279
G1 X125.441 Y121.792 E0.01330
G1 X136.070 Y132.420 E0.36398
G1 X135.521 Y132.420 E0.01330
G1 X125.441 Y122.341 E0.34518
G1 X125.142 Y122.591 F6000.000
G1 F2160
G1 X134.981 Y132.430 E0.33697
G1 X134.790 Y132.788 E0.00983
G1 X124.593 Y122.591 E0.34922
G1 X124.044 Y122.591 E0.01330
G1 X134.599 Y133.146 E0.36148
G1 X134.407 Y133.504 E0.00983
G1 X123.494 Y122.591 E0.37373
G1 X122.945 Y122.591 E0.01330
G1 X134.216 Y133.861 E0.38598
G1 X134.024 Y134.219 E0.00983
G1 X122.396 Y122.591 E0.39823
G1 X121.847 Y122.591 E0.01330
G1 X133.833 Y134.577 E0.41048
G1 X133.642 Y134.935 E0.00983
G1 X121.298 Y122.591 E0.42273
G1 X120.749 Y122.591 E0.01330
G1 X133.450 Y135.292 E0.43498
G1 X133.259 Y135.650 E0.00983
G1 X120.200 Y122.591 E0.44723
G1 X119.650 Y122.591 E0.01330
G1 X133.067 Y136.008 E0.45949
G1 X132.876 Y136.365 E0.00983
G1 X119.101 Y122.591 E0.47174
G1 X118.552 Y122.591 E0.01330
G1 X132.684 Y136.723 E0.48399
G1 X132.493 Y137.081 E0.00983
G1 X118.003 Y122.591 E0.49624
G1 X117.454 Y122.591 E0.01330
G1 X132.302 Y137.439 E0.50849
G1 X132.110 Y137.796 E0.00983
G1 X116.905 Y122.591 E0.52074
G1 X116.355 Y122.591 E0.01330
G1 X131.919 Y138.154 E0.53299
G1 X131.727 Y138.512 E0.00983
G1 X115.806 Y122.591 E0.54524
G1 X115.257 Y122.591 E0.01330
G1 X131.536 Y138.870 E0.55749
G1 X131.344 Y139.227 E0.00983
G1 X114.708 Y122.591 E0.56975
G1 X114.159 Y122.591 E0.01330
G1 X134.264 Y142.696 E0.68855
G1 X133.879 Y142.860 E0.01014
G1 X113.610 Y122.591 E0.69416
G1 X113.061 Y122.591 E0.01330
G1 X133.491 Y143.021 E0.69967
G1 X133.102 Y143.182 E0.01018
G1 X112.511 Y122.591 E0.70517
G1 X111.962 Y122.591 E0.01330
G1 X132.714 Y143.342 E0.71067
G1 X132.325 Y143.503 E0.01018
G1 X111.413 Y122.591 E0.71618
G1 X110.864 Y122.591 E0.01330
G1 X131.937 Y143.664 E0.72168
G1 X131.548 Y143.824 E0.01018
G1 X110.315 Y122.591 E0.72718
G1 X109.766 Y122.591 E0.01330
G1 X131.160 Y143.985 E0.73269
G1 X130.771 Y144.146 E0.01018
G1 X109.216 Y122.591 E0.73819
G1 X108.667 Y122.591 E0.01330
G1 X130.383 Y144.307 E0.74369
G1 X129.995 Y144.467 E0.01018
G1 X108.118 Y122.591 E0.74919
G1 X107.569 Y122.591 E0.01330
G1 X129.606 Y144.628 E0.75470
G1 X129.218 Y144.789 E0.01018
G1 X107.020 Y122.591 E0.76020
G1 X106.471 Y122.591 E0.01330
G1 X128.829 Y144.949 E0.76570
G1 X128.441 Y145.110 E0.01018
G1 X105.922 Y122.591 E0.77121
G1 X105.372 Y122.591 E0.01330
G1 X128.052 Y145.271 E0.77671
G1 X127.664 Y145.431 E0.01018
G1 X104.823 Y122.591 E0.78221
G1 X104.274 Y122.591 E0.01330
G1 X127.275 Y145.592 E0.78772
G1 X126.887 Y145.753 E0.01018
G1 X103.725 Y122.591 E0.79322
G1 X103.176 Y122.591 E0.01330
G1 X126.498 Y145.913 E0.79872
G1 X126.110 Y146.074 E0.01018
G1 X102.627 Y122.591 E0.80423
G1 X102.077 Y122.591 E0.01330
G1 X125.721 Y146.235 E0.80973
G1 X125.333 Y146.396 E0.01018
G1 X101.528 Y122.591 E0.81523
G1 X100.979 Y122.591 E0.01330
G1 X124.945 Y146.556 E0.82074
G1 X124.535 Y146.696 E0.01048
G1 X100.430 Y122.591 E0.82552
