; generated by Slic3r 1.30.0.25-prusa3d-release_candidate_1_3 on 2016-10-12 at 14:15:20

; external perimeters extrusion width = 0.70mm
; perimeters extrusion width = 0.70mm
; infill extrusion width = 0.70mm
; solid infill extrusion width = 0.70mm
; top infill extrusion width = 0.74mm
; support material extrusion width = 0.35mm

M115 U3.0.8 ; tell printer latest fw version
M83  ; extruder relative mode
M104 S255 ; set extruder temp
M140 S100 ; set bed temp
M190 S100 ; wait for bed temp
M109 S255 ; wait for extruder temp
G28 W ; home all without mesh bed level
G80 ; mesh bed leveling
G1 Y-3.0 F1000.0 ; go outside pritn area
G1 X60.0 E9.0  F1000.0 ; intro line
G1 X100.0 E12.5  F1000.0 ; intro line
G21 ; set units to millimeters
G90 ; use absolute coordinates
M83 ; use relative distances for extrusion
G1 E-0.80000 F2100.00000
G1 Z0.150 F6000.000
G1 X60.164 Y43.363 F6000.000
G1 E0.80000 F2100.00000
M204 S1000
G1 F1800
G1 X61.254 Y42.538 E0.03307
G1 X62.085 Y42.386 E0.02044
G1 X108.124 Y42.289 E1.11345
G1 X121.129 Y42.307 E0.31452
G1 X128.922 Y42.371 E0.18847
G1 X185.725 Y44.191 E1.37450
G1 X187.022 Y44.625 E0.03307
G1 X187.998 Y46.151 E0.04381
G1 X193.330 Y75.493 E0.72125
G1 X193.369 Y75.894 E0.00975
G1 X193.973 Y132.509 E1.36929
G1 X193.973 Y163.884 E0.75880
G1 X193.582 Y165.194 E0.03307
G1 X192.535 Y166.074 E0.03307
G1 X191.652 Y166.270 E0.02188
G1 X108.004 Y168.599 E2.02379
G1 X86.248 Y168.600 E0.52617
G1 X85.992 Y168.587 E0.00621
G1 X58.169 Y165.581 E0.67679
G1 X56.909 Y165.051 E0.03307
G1 X56.146 Y163.916 E0.03307
G1 X56.038 Y163.218 E0.01709
G1 X56.027 Y49.794 E2.74313
G1 X56.488 Y48.384 E0.03589
G1 X60.128 Y43.412 E0.14903
G1 F4800
G1 X61.254 Y42.538 E-0.59233
G1 F4800
G1 X61.650 Y42.465 E-0.16767
G1 E-0.04000 F2100.00000
G1 X170.870 Y141.733 F6000.000
G1 E0.80000 F2100.00000
G1 F1080
G1 X175.580 Y141.733 E0.11390
G1 X175.580 Y143.983 E0.05441
G1 X177.305 Y143.983 E0.04171
G1 X177.305 Y141.733 E0.05441
G1 X182.014 Y141.733 E0.11390
G1 X182.014 Y155.155 E0.32460
G1 X170.870 Y155.155 E0.26951
G1 X170.870 Y141.793 E0.32315
G1 F4800
G1 X172.699 Y141.770 E-0.76000
G1 E-0.04000 F2100.00000
G1 X160.421 Y132.719 F6000.000
G1 E0.80000 F2100.00000
G1 F1080
G1 X191.375 Y132.719 E0.74864
G1 X191.375 Y163.674 E0.74864
G1 X160.421 Y163.674 E0.74864
G1 X160.421 Y132.779 E0.74719
G1 F4800
G1 X162.249 Y132.775 E-0.76000
G1 E-0.04000 F2100.00000
G1 X173.438 Y148.358 F6000.000
G1 E0.80000 F2100.00000
G1 F720
G1 X174.378 Y149.036 E0.02802
G1 X174.946 Y149.525 E0.01814
G1 X175.415 Y150.023 E0.01653
G1 X175.602 Y150.272 E0.00755
G1 X175.752 Y150.519 E0.00698
G1 X175.859 Y150.759 E0.00637
G1 X175.982 Y151.234 E0.01185
G1 X176.066 Y151.460 E0.00584
G1 X176.291 Y151.860 E0.01109
G1 X176.584 Y152.211 E0.01106
G1 X177.001 Y152.584 E0.01353
G1 X173.435 Y152.584 E0.08623
G1 X173.438 Y148.418 E0.10076
G1 F4800
G1 X173.755 Y148.572 E-0.14634
G1 F4800
G1 X174.378 Y149.036 E-0.32295
G1 F4800
G1 X174.908 Y149.492 E-0.29071
G1 E-0.04000 F2100.00000
G1 X176.576 Y146.553 F6000.000
G1 E0.80000 F2100.00000
G1 F720
G1 X179.449 Y146.553 E0.06950
G1 X179.449 Y152.146 E0.13527
G1 X179.221 Y151.969 E0.00699
G1 X178.916 Y151.684 E0.01009
G1 X178.838 Y151.436 E0.00629
G1 X178.588 Y151.174 E0.00877
G1 X178.409 Y151.140 E0.00440
G1 X178.118 Y150.712 E0.01253
G1 X178.007 Y150.488 E0.00603
G1 X177.921 Y150.261 E0.00588
G1 X177.852 Y149.979 E0.00703
G1 X178.019 Y149.767 E0.00652
G1 X178.022 Y149.607 E0.00388
G1 X177.947 Y149.309 E0.00744
G1 X177.877 Y149.181 E0.00353
G1 X177.713 Y149.082 E0.00463
G1 X177.647 Y149.092 E0.00160
G1 X177.525 Y148.729 E0.00925
G1 X177.266 Y148.075 E0.01701
G1 X177.349 Y147.845 E0.00591
G1 X177.218 Y147.297 E0.01364
G1 X177.108 Y147.149 E0.00445
G1 X176.922 Y147.069 E0.00490
G1 X176.824 Y147.087 E0.00240
G1 X176.601 Y146.607 E0.01280
G1 F4800
G1 X178.429 Y146.573 E-0.76000
G1 E-0.04000 F2100.00000
G1 X177.601 Y147.921 F6000.000
G1 E0.80000 F2100.00000
G1 F2160
G1 X179.164 Y149.483 E0.05945
G1 X179.164 Y148.873 E0.01641
G1 X177.517 Y147.226 E0.06266
G1 X177.739 Y146.839 E0.01203
G1 X179.164 Y148.263 E0.05420
G1 X179.164 Y147.653 E0.01641
G1 X178.349 Y146.839 E0.03099
G1 X178.959 Y146.839 E0.01641
G1 X179.164 Y147.043 E0.00778
G1 F4800
G1 X178.959 Y146.839 E-0.12022
G1 F4800
G1 X178.349 Y146.839 E-0.25356
G1 F4800
G1 X179.006 Y147.496 E-0.38622
G1 E-0.04000 F2100.00000
G1 X178.227 Y149.156 F6000.000
G1 E0.80000 F2100.00000
G1 F2160
G1 X179.164 Y150.093 E0.03566
G1 X179.164 Y150.704 E0.01641
G1 X178.290 Y149.830 E0.03323
G1 X178.481 Y150.631 E0.02215
G1 X178.746 Y150.896 E0.01008
G1 X179.050 Y151.463 F6000.000
G1 F1440
G1 X179.255 Y151.667 E0.00143
G1 F4800
G1 X179.050 Y151.463 E-0.12050
G1 E-0.67950 F2100.00000
G1 X176.487 Y152.390 F6000.000
G1 E0.80000 F2100.00000
G1 F1440
G1 X176.392 Y152.349 E0.00014
G1 X176.274 Y152.178 E0.00028
G1 F4800
G1 X176.392 Y152.349 E-0.08619
G1 F4800
G1 X176.487 Y152.390 E-0.04312
G1 E-0.67069 F2100.00000
G1 X175.219 Y150.347 F6000.000
G1 E0.80000 F2100.00000
G1 F2160
G1 X174.406 Y149.534 E0.03290
G1 X173.723 Y149.500 E0.01960
G1 X175.751 Y151.528 E0.08211
G1 X175.859 Y152.285 E0.02189
G1 X173.722 Y150.148 E0.08649
G1 X173.722 Y150.797 E0.01857
G1 X175.224 Y152.299 E0.06079
G1 X174.575 Y152.299 E0.01858
G1 X173.721 Y151.446 E0.03453
G1 X173.721 Y152.094 E0.01857
G1 X173.925 Y152.299 E0.00828
G1 F4800
G1 X173.721 Y152.094 E-0.12021
G1 F4800
G1 X173.721 Y151.446 E-0.26960
G1 F4800
G1 X174.351 Y152.075 E-0.37018
G1 E-0.04000 F2100.00000
G1 X170.585 Y154.955 F6000.000
G1 E0.80000 F2100.00000
G1 F2160
G1 X160.706 Y145.076 E0.33804
G1 X160.706 Y144.527 E0.01328
G1 X170.585 Y154.406 E0.33804
G1 X170.585 Y153.857 E0.01328
G1 X160.706 Y143.979 E0.33804
G1 X160.706 Y143.430 E0.01328
G1 X170.585 Y153.309 E0.33804
G1 X170.585 Y152.760 E0.01328
G1 X160.706 Y142.881 E0.33804
G1 X160.706 Y142.332 E0.01328
G1 X170.585 Y152.211 E0.33804
G1 X170.585 Y151.662 E0.01328
G1 X160.706 Y141.784 E0.33804
G1 X160.706 Y141.235 E0.01328
G1 X170.585 Y151.114 E0.33804
G1 X170.585 Y150.565 E0.01328
G1 X160.706 Y140.686 E0.33804
G1 X160.706 Y140.138 E0.01328
G1 X170.585 Y150.016 E0.33804
G1 X170.585 Y149.468 E0.01328
G1 X160.706 Y139.589 E0.33804
G1 X160.706 Y139.040 E0.01328
G1 X170.585 Y148.919 E0.33804
G1 X170.585 Y148.370 E0.01328
G1 X160.706 Y138.491 E0.33804
G1 X160.706 Y137.943 E0.01328
G1 X170.585 Y147.821 E0.33804
G1 X170.585 Y147.273 E0.01328
G1 X160.706 Y137.394 E0.33804
G1 X160.706 Y136.845 E0.01328
G1 X170.585 Y146.724 E0.33804
G1 X170.585 Y146.175 E0.01328
G1 X160.706 Y136.297 E0.33804
G1 X160.706 Y135.748 E0.01328
G1 X170.585 Y145.627 E0.33804
G1 X170.585 Y145.078 E0.01328
G1 X160.706 Y135.199 E0.33804
G1 X160.706 Y134.650 E0.01328
G1 X170.585 Y144.529 E0.33804
G1 X170.585 Y143.980 E0.01328
G1 X160.706 Y134.102 E0.33804
G1 X160.706 Y133.553 E0.01328
G1 X170.585 Y143.432 E0.33804
G1 X170.585 Y142.883 E0.01328
G1 X160.726 Y133.024 E0.33736
G1 X161.255 Y133.004 E0.01280
G1 X170.585 Y142.334 E0.31927
G1 X170.585 Y141.785 E0.01328
G1 X161.803 Y133.004 E0.30049
G1 X162.352 Y133.004 E0.01328
G1 X170.795 Y141.448 E0.28893
G1 X171.344 Y141.448 E0.01328
G1 X162.901 Y133.004 E0.28893
G1 X163.450 Y133.004 E0.01328
G1 X171.893 Y141.448 E0.28893
G1 X172.442 Y141.448 E0.01328
G1 X163.998 Y133.004 E0.28893
G1 X164.547 Y133.004 E0.01328
G1 X172.990 Y141.448 E0.28893
G1 X173.539 Y141.448 E0.01328
G1 X165.096 Y133.004 E0.28893
G1 X165.644 Y133.004 E0.01328
G1 X174.088 Y141.448 E0.28893
G1 X174.636 Y141.448 E0.01328
G1 X166.193 Y133.004 E0.28893
G1 X166.742 Y133.004 E0.01328
G1 X175.185 Y141.448 E0.28893
G1 X175.734 Y141.448 E0.01328
G1 X167.291 Y133.004 E0.28893
G1 X167.839 Y133.004 E0.01328
G1 X177.019 Y142.184 E0.31413
G1 X177.019 Y141.635 E0.01328
G1 X168.388 Y133.004 E0.29535
G1 X168.937 Y133.004 E0.01328
G1 X177.380 Y141.448 E0.28893
G1 X177.929 Y141.448 E0.01328
G1 X169.485 Y133.004 E0.28893
G1 X170.034 Y133.004 E0.01328
G1 X178.478 Y141.448 E0.28893
G1 X179.026 Y141.448 E0.01328
G1 X170.583 Y133.004 E0.28893
G1 X171.132 Y133.004 E0.01328
G1 X179.575 Y141.448 E0.28893
G1 X180.124 Y141.448 E0.01328
G1 X171.680 Y133.004 E0.28893
G1 X172.229 Y133.004 E0.01328
G1 X180.672 Y141.448 E0.28893
G1 X181.221 Y141.448 E0.01328
G1 X172.778 Y133.004 E0.28893
G1 X173.326 Y133.004 E0.01328
G1 X181.770 Y141.448 E0.28893
G1 F4800
G1 X180.477 Y140.155 E-0.76000
G1 E-0.04000 F2100.00000
G1 X177.019 Y142.733 F6000.000
G1 E0.80000 F2100.00000
G1 F2160
G1 X175.865 Y141.579 E0.03948
G1 X175.865 Y142.128 E0.01328
G1 X177.019 Y143.281 E0.03948
G1 X176.886 Y143.697 E0.01056
G1 X175.865 Y142.676 E0.03493
G1 X175.865 Y143.225 E0.01328
G1 X176.337 Y143.697 E0.01616
G1 F4800
G1 X175.865 Y143.225 E-0.27749
G1 F4800
G1 X175.865 Y142.676 E-0.22806
G1 F4800
G1 X176.298 Y143.109 E-0.25445
G1 E-0.04000 F2100.00000
G1 X182.300 Y155.146 F6000.000
G1 E0.80000 F2100.00000
G1 F2160
G1 X190.541 Y163.388 E0.28202
G1 X191.070 Y163.368 E0.01280
G1 X182.300 Y154.598 E0.30011
G1 X182.300 Y154.049 E0.01328
G1 X191.090 Y162.839 E0.30080
G1 X191.090 Y162.291 E0.01328
G1 X182.300 Y153.500 E0.30080
G1 X182.300 Y152.952 E0.01328
G1 X191.090 Y161.742 E0.30080
G1 X191.090 Y161.193 E0.01328
G1 X182.300 Y152.403 E0.30080
G1 X182.300 Y151.854 E0.01328
G1 X191.090 Y160.645 E0.30080
G1 X191.090 Y160.096 E0.01328
G1 X182.300 Y151.305 E0.30080
G1 X182.300 Y150.757 E0.01328
G1 X191.090 Y159.547 E0.30080
G1 X191.090 Y158.998 E0.01328
G1 X182.300 Y150.208 E0.30080
G1 X182.300 Y149.659 E0.01328
G1 X191.090 Y158.450 E0.30080
G1 X191.090 Y157.901 E0.01328
G1 X182.300 Y149.111 E0.30080
G1 X182.300 Y148.562 E0.01328
G1 X191.090 Y157.352 E0.30080
G1 X191.090 Y156.803 E0.01328
G1 X182.300 Y148.013 E0.30080
G1 X182.300 Y147.464 E0.01328
G1 X191.090 Y156.255 E0.30080
G1 X191.090 Y155.706 E0.01328
G1 X182.300 Y146.916 E0.30080
G1 X182.300 Y146.367 E0.01328
G1 X191.090 Y155.157 E0.30080
G1 X191.090 Y154.609 E0.01328
G1 X182.300 Y145.818 E0.30080
G1 X182.300 Y145.270 E0.01328
G1 X191.090 Y154.060 E0.30080
G1 X191.090 Y153.511 E0.01328
G1 X182.300 Y144.721 E0.30080
G1 X182.300 Y144.172 E0.01328
G1 X191.090 Y152.962 E0.30080
G1 X191.090 Y152.414 E0.01328
G1 X182.300 Y143.623 E0.30080
G1 X182.300 Y143.075 E0.01328
G1 X191.090 Y151.865 E0.30080
G1 X191.090 Y151.316 E0.01328
G1 X182.300 Y142.526 E0.30080
G1 X182.300 Y141.977 E0.01328
G1 X191.090 Y150.768 E0.30080
G1 X191.090 Y150.219 E0.01328
G1 X173.875 Y133.004 E0.58908
G1 X174.424 Y133.004 E0.01328
G1 X191.090 Y149.670 E0.57030
G1 X191.090 Y149.121 E0.01328
G1 X174.973 Y133.004 E0.55153
G1 X175.521 Y133.004 E0.01328
G1 X191.090 Y148.573 E0.53275
G1 X191.090 Y148.024 E0.01328
G1 X176.070 Y133.004 E0.51397
G1 X176.619 Y133.004 E0.01328
G1 X191.090 Y147.475 E0.49520
G1 X191.090 Y146.927 E0.01328
G1 X177.167 Y133.004 E0.47642
G1 X177.716 Y133.004 E0.01328
G1 X191.090 Y146.378 E0.45764
G1 X191.090 Y145.829 E0.01328
G1 X178.265 Y133.004 E0.43886
G1 X178.814 Y133.004 E0.01328
G1 X191.090 Y145.280 E0.42009
G1 X191.090 Y144.732 E0.01328
G1 X179.362 Y133.004 E0.40131
G1 X179.911 Y133.004 E0.01328
G1 X191.090 Y144.183 E0.38253
G1 X191.090 Y143.634 E0.01328
G1 X180.460 Y133.004 E0.36376
G1 X181.008 Y133.004 E0.01328
G1 X191.090 Y143.086 E0.34498
G1 X191.090 Y142.537 E0.01328
G1 X181.557 Y133.004 E0.32620
G1 X182.106 Y133.004 E0.01328
G1 X191.090 Y141.988 E0.30743
G1 X191.090 Y141.439 E0.01328
G1 X182.655 Y133.004 E0.28865
G1 X183.203 Y133.004 E0.01328
G1 X191.090 Y140.891 E0.26987
G1 X191.090 Y140.342 E0.01328
G1 X183.752 Y133.004 E0.25110
G1 X184.301 Y133.004 E0.01328
G1 X191.090 Y139.793 E0.23232
G1 X191.090 Y139.245 E0.01328
G1 X184.849 Y133.004 E0.21354
G1 X185.398 Y133.004 E0.01328
G1 X191.090 Y138.696 E0.19477
G1 X191.090 Y138.147 E0.01328
G1 X185.947 Y133.004 E0.17599
G1 X186.496 Y133.004 E0.01328
G1 X191.090 Y137.598 E0.15721
G1 X191.090 Y137.050 E0.01328
G1 X187.044 Y133.004 E0.13844
G1 X187.593 Y133.004 E0.01328
G1 X191.090 Y136.501 E0.11966
G1 X191.090 Y135.952 E0.01328
G1 X188.142 Y133.004 E0.10088
G1 X188.691 Y133.004 E0.01328
G1 X191.090 Y135.404 E0.08211
G1 X191.090 Y134.855 E0.01328
G1 X189.239 Y133.004 E0.06333
G1 X189.788 Y133.004 E0.01328
G1 X191.090 Y134.306 E0.04455
G1 X191.090 Y133.757 E0.01328
G1 X190.337 Y133.004 E0.02578
G1 X190.885 Y133.004 E0.01328
G1 X191.090 Y133.209 E0.00700
G1 F4800
G1 X190.885 Y133.004 E-0.12022
G1 F4800
G1 X190.337 Y133.004 E-0.22806
G1 F4800
G1 X191.037 Y133.705 E-0.41172
G1 E-0.04000 F2100.00000
G1 X182.045 Y155.440 F6000.000
G1 E0.80000 F2100.00000
G1 F2160
G1 X189.992 Y163.388 E0.27197
G1 X189.444 Y163.388 E0.01328
G1 X181.496 Y155.440 E0.27197
G1 X180.947 Y155.440 E0.01328
G1 X188.895 Y163.388 E0.27197
G1 X188.346 Y163.388 E0.01328
G1 X180.399 Y155.440 E0.27197
G1 X179.850 Y155.440 E0.01328
G1 X187.798 Y163.388 E0.27197
G1 X187.249 Y163.388 E0.01328
G1 X179.301 Y155.440 E0.27197
G1 X178.752 Y155.440 E0.01328
G1 X186.700 Y163.388 E0.27197
G1 X186.151 Y163.388 E0.01328
G1 X178.204 Y155.440 E0.27197
G1 X177.655 Y155.440 E0.01328
G1 X185.603 Y163.388 E0.27197
G1 X185.054 Y163.388 E0.01328
G1 X177.106 Y155.440 E0.27197
G1 X176.558 Y155.440 E0.01328
G1 X184.505 Y163.388 E0.27197
G1 X183.957 Y163.388 E0.01328
G1 X176.009 Y155.440 E0.27197
G1 X175.460 Y155.440 E0.01328
G1 X183.408 Y163.388 E0.27197
G1 X182.859 Y163.388 E0.01328
G1 X174.911 Y155.440 E0.27197
G1 X174.363 Y155.440 E0.01328
G1 X182.310 Y163.388 E0.27197
G1 X181.762 Y163.388 E0.01328
G1 X173.814 Y155.440 E0.27197
G1 X173.265 Y155.440 E0.01328
G1 X181.213 Y163.388 E0.27197
G1 X180.664 Y163.388 E0.01328
G1 X172.716 Y155.440 E0.27197
G1 X172.168 Y155.440 E0.01328
G1 X180.116 Y163.388 E0.27197
G1 X179.567 Y163.388 E0.01328
G1 X171.619 Y155.440 E0.27197
G1 X171.070 Y155.440 E0.01328
G1 X179.018 Y163.388 E0.27197
G1 X178.469 Y163.388 E0.01328
G1 X160.706 Y145.625 E0.60785
G1 X160.706 Y146.173 E0.01328
G1 X177.921 Y163.388 E0.58908
G1 X177.372 Y163.388 E0.01328
G1 X160.706 Y146.722 E0.57030
G1 X160.706 Y147.271 E0.01328
G1 X176.823 Y163.388 E0.55152
G1 X176.275 Y163.388 E0.01328
G1 X160.706 Y147.820 E0.53274
G1 X160.706 Y148.368 E0.01328
G1 X175.726 Y163.388 E0.51397
G1 X175.177 Y163.388 E0.01328
G1 X160.706 Y148.917 E0.49519
G1 X160.706 Y149.466 E0.01328
G1 X174.628 Y163.388 E0.47641
G1 X174.080 Y163.388 E0.01328
G1 X160.706 Y150.014 E0.45764
G1 X160.706 Y150.563 E0.01328
G1 X173.531 Y163.388 E0.43886
G1 X172.982 Y163.388 E0.01328
G1 X160.706 Y151.112 E0.42008
G1 X160.706 Y151.661 E0.01328
G1 X172.433 Y163.388 E0.40131
G1 X171.885 Y163.388 E0.01328
G1 X160.706 Y152.209 E0.38253
G1 X160.706 Y152.758 E0.01328
G1 X171.336 Y163.388 E0.36375
G1 X170.787 Y163.388 E0.01328
G1 X160.706 Y153.307 E0.34498
G1 X160.706 Y153.855 E0.01328
G1 X170.239 Y163.388 E0.32620
G1 X169.690 Y163.388 E0.01328
G1 X160.706 Y154.404 E0.30742
G1 X160.706 Y154.953 E0.01328
G1 X169.141 Y163.388 E0.28865
G1 X168.592 Y163.388 E0.01328
G1 X160.706 Y155.502 E0.26987
G1 X160.706 Y156.050 E0.01328
G1 X168.044 Y163.388 E0.25109
G1 X167.495 Y163.388 E0.01328
G1 X160.706 Y156.599 E0.23232
G1 X160.706 Y157.148 E0.01328
G1 X166.946 Y163.388 E0.21354
G1 X166.398 Y163.388 E0.01328
G1 X160.706 Y157.696 E0.19476
G1 X160.706 Y158.245 E0.01328
G1 X165.849 Y163.388 E0.17599
G1 X165.300 Y163.388 E0.01328
G1 X160.706 Y158.794 E0.15721
G1 X160.706 Y159.343 E0.01328
G1 X164.751 Y163.388 E0.13843
G1 X164.203 Y163.388 E0.01328
G1 X160.706 Y159.891 E0.11966
G1 X160.706 Y160.440 E0.01328
G1 X163.654 Y163.388 E0.10088
G1 X163.105 Y163.388 E0.01328
G1 X160.706 Y160.989 E0.08210
G1 X160.706 Y161.537 E0.01328
G1 X162.557 Y163.388 E0.06333
G1 X162.008 Y163.388 E0.01328
G1 X160.706 Y162.086 E0.04455
G1 X160.706 Y162.635 E0.01328
G1 X161.459 Y163.388 E0.02577
G1 X160.910 Y163.388 E0.01328
G1 X160.706 Y163.184 E0.00700
G1 F4800
G1 X160.910 Y163.388 E-0.12015
G1 F4800
G1 X161.459 Y163.388 E-0.22806
G1 F4800
G1 X160.759 Y162.687 E-0.41179
G1 E-0.04000 F2100.00000
G1 X151.568 Y155.310 F6000.000
G1 E0.80000 F2100.00000
G1 F720
G1 X151.766 Y155.964 E0.01652
G1 X151.833 Y156.643 E0.01652
G1 X151.766 Y157.323 E0.01652
G1 X151.568 Y157.977 E0.01652
G1 X151.246 Y158.579 E0.01652
G1 X150.812 Y159.107 E0.01652
